src/assets/linkedin.svg

<?xml version="1.0" encoding="UTF-8"?>
<svg width="57px" height="55px" viewBox="0 0 57 55" version="1.1" xmlns="http://www.w3.org/2000/svg" xmlns:xlink="http://www.w3.org/1999/xlink">
    <!-- Generator: Sketch 54.1 (76490) - https://sketchapp.com -->
    <title>34227</title>
    <desc>Created with Sketch.</desc>
    <g id="Page-1" stroke="none" stroke-width="1" fill="none" fill-rule="evenodd">
        <g id="Blaaa" transform="translate(-1036.000000, -5808.000000)" fill="#000000" fill-rule="nonzero">
            <g id="Group-5" transform="translate(0.000000, 5204.000000)">
                <g id="34227" transform="translate(1036.000000, 604.000000)">
                    <path d="M57,33.7204563 L57,55 L44.7830544,55 L44.7830544,35.1456319 C44.7830544,30.1580528 43.0160049,26.754225 38.5938756,26.754225 C35.2181406,26.754225 33.2092384,29.0481555 32.3254487,31.2671471 C32.003155,32.0604279 31.9201961,33.164571 31.9201961,34.2750035 L31.9201961,55 L19.6991423,55 C19.6991423,55 19.8637348,21.3732172 19.6991423,17.8892317 L31.9190034,17.8892317 L31.9190034,23.1495346 C31.8942218,23.1888774 31.8620189,23.2312981 31.8386951,23.2694366 L31.9190034,23.2694366 L31.9190034,23.1495346 C33.5425315,20.6244982 36.4419821,17.0173989 42.9318534,17.0173989 C50.9723657,17.0172651 57,22.3214607 57,33.7204563 Z M6.91539976,0 C2.73459315,0 0,2.76912278 0,6.41061357 C0,9.97274952 2.65547746,12.8259108 6.75319274,12.8259108 L6.83482634,12.8259108 C11.0966039,12.8259108 13.7470456,9.9732848 13.7470456,6.41061357 C13.6667372,2.76912278 11.0966039,0 6.91539976,0 Z M0.725823439,55 L12.942239,55 L12.942239,17.8892317 L0.725823439,17.8892317 L0.725823439,55 Z" id="LinkedIn"></path>
                </g>
            </g>
        </g>
    </g>
</svg>

<?xml version="1.0" encoding="utf-8"?>
<!-- Generator: Adobe Illustrator 23.0.2, SVG Export Plug-In . SVG Version: 6.00 Build 0)  -->
<svg version="1.1" id="Layer_1" xmlns="http://www.w3.org/2000/svg" xmlns:xlink="http://www.w3.org/1999/xlink" x="0px" y="0px"
	 viewBox="0 0 57 55" style="enable-background:new 0 0 57 55;" xml:space="preserve">
<style type="text/css">
	.st0{fill:#FFFFFF;}
</style>
<title>34227</title>
<desc>Created with Sketch.</desc>
<g id="Page-1">
	<g id="Blaaa" transform="translate(-1036.000000, -5808.000000)">
		<g id="Group-5" transform="translate(0.000000, 5204.000000)">
			<g transform="translate(1036.000000, 604.000000)">
				<path id="LinkedIn" class="st0" d="M57,33.7V55H44.8V35.1c0-5-1.8-8.4-6.2-8.4c-3.4,0-5.4,2.3-6.3,4.5c-0.3,0.8-0.4,1.9-0.4,3
					V55H19.7c0,0,0.2-33.6,0-37.1h12.2v5.3c0,0-0.1,0.1-0.1,0.1h0.1v-0.1c1.6-2.5,4.5-6.1,11-6.1C51,17,57,22.3,57,33.7z M6.9,0
					C2.7,0,0,2.8,0,6.4c0,3.6,2.7,6.4,6.8,6.4h0.1c4.3,0,6.9-2.9,6.9-6.4C13.7,2.8,11.1,0,6.9,0z M0.7,55h12.2V17.9H0.7V55z"/>
			</g>
		</g>
	</g>
</g>
</svg>
